packages/foundations/assets/icons/functional/images/maps/navigation_to_left_20.svg

<svg width="20" height="20" viewBox="0 0 20 20" fill="none" xmlns="http://www.w3.org/2000/svg">
<g clip-path="url(#clip0_2213_5389)">
<path fill-rule="evenodd" clip-rule="evenodd" d="M9.9047 2.04999C9.6393 2.04999 9.3739 2.14941 9.2081 2.34825L5.2986 6.25383C5.0995 6.4196 5 6.6848 5 6.94999C5 7.18201 5.0995 7.4472 5.2986 7.64614L9.3081 11.6517C9.4739 11.8174 9.7393 11.95 10.0047 11.95C10.5687 11.95 11 11.486 11 10.9556C11 10.6904 10.9005 10.4252 10.7014 10.2262L8.422 7.94899L12 7.94999C12.5523 7.94999 13 8.3977 13 8.94999V16.95C13 17.5023 13.4477 17.95 14 17.95C14.5523 17.95 15 17.5023 15 16.95V8.94999C15 7.29313 13.6569 5.94999 12 5.94999L8.424 5.94899L10.6014 3.77374C10.7987 3.56118 10.8983 3.31807 10.9 3.04441C10.9 2.51402 10.4687 2.04999 9.9047 2.04999Z" fill="#1A1C1F"/>
</g>
<defs>
<clipPath id="clip0_2213_5389">
<rect width="20" height="20" fill="white"/>
</clipPath>
</defs>
</svg>

<svg xmlns="http://www.w3.org/2000/svg" width="20" height="20" fill="none"><g clip-path="url(#a)"><path fill="#1A1C1F" fill-rule="evenodd" d="M9.905 2.05c-.266 0-.531.1-.697.298l-3.91 3.906C5.1 6.42 5 6.684 5 6.95c0 .232.1.497.299.696l4.01 4.006c.165.165.43.298.696.298a1 1 0 0 0 .995-.994c0-.266-.1-.53-.299-.73L8.422 7.95 12 7.95a1 1 0 0 1 1 1v8a1 1 0 1 0 2 0v-8a3 3 0 0 0-3-3l-3.576-.001 2.177-2.175q.297-.32.299-.73a1 1 0 0 0-.995-.994" clip-rule="evenodd"/></g><defs><clipPath id="a"><path fill="#fff" d="M0 0h20v20H0z"/></clipPath></defs></svg>
